X: 24602
T: Mabou Hall, The
R: jig
M: 6/8
K: Amajor
|:B,|A,3 (A,CE)|A3 (Ace)|agf ecA|dcB AFD|
A,3 (A,CE)|A3 (Ace)|aed cdB|A3 A2:|
|:d|ceA ceA|{b}agf {gf} ecA|dfB dfB|
[1bag fed|ceA ceA|agf ecA|dfd cac|A3 A2:|
[2bag fed|cea ecA|agf bge|GFE DCB|A,3 A,2||

